icons/fall.svg

<svg width="24" height="24" viewBox="0 0 24 24" fill="none" xmlns="http://www.w3.org/2000/svg">
<path fill-rule="evenodd" clip-rule="evenodd" d="M5.06667 4C5.02288 4 5.00001 4.03328 5.00001 4.05882C5.00001 4.08437 5.02288 4.11765 5.06667 4.11765C5.11046 4.11765 5.13334 4.08437 5.13334 4.05882C5.13334 4.03328 5.11046 4 5.06667 4ZM3.00001 4.05882C3.00001 2.91482 3.93226 2 5.06667 2C6.20109 2 7.13334 2.91482 7.13334 4.05882C7.13334 5.20283 6.20109 6.11765 5.06667 6.11765C3.93226 6.11765 3.00001 5.20283 3.00001 4.05882ZM15.3764 3.35433C15.7655 3.74629 15.7631 4.37945 15.3712 4.76853L12.1712 7.94501C11.9838 8.13095 11.7306 8.23529 11.4667 8.23529H9.20891L11.1979 10.8678C11.2786 10.9746 11.337 11.0965 11.3697 11.2264L12.4364 15.4617C12.4728 15.6063 12.4764 15.7572 12.447 15.9034L11.3803 21.1975C11.2712 21.7389 10.7439 22.0894 10.2025 21.9803C9.66109 21.8712 9.31063 21.3439 9.41971 20.8025L10.4416 15.7304L9.47984 11.9116L7.20001 8.89413L5.08676 11.6911L6.03639 15.4617C6.17128 15.9972 5.84646 16.5407 5.3109 16.6756C4.77534 16.8105 4.23184 16.4857 4.09696 15.9501L3.03029 11.7148C2.95629 11.421 3.01949 11.1095 3.20214 10.8678L6.40214 6.63246C6.59114 6.38232 6.8865 6.23529 7.20001 6.23529H11.0546L13.9622 3.34911C14.3541 2.96003 14.9873 2.96237 15.3764 3.35433ZM12.0667 11.4706C12.0667 10.9183 12.5144 10.4706 13.0667 10.4706H15.7333C15.8876 10.4706 16.0398 10.5063 16.1779 10.5748L20.4446 12.6925C20.9393 12.938 21.1413 13.5381 20.8957 14.0328C20.6502 14.5275 20.0501 14.7295 19.5554 14.484L15.4988 12.4706H13.0667C12.5144 12.4706 12.0667 12.0229 12.0667 11.4706Z" fill="black"/>
</svg>

<svg
  width="24"
  height="24"
  viewBox="0 0 24 24"
  xmlns="http://www.w3.org/2000/svg"
>
  <path
    fill-rule="evenodd"
    clip-rule="evenodd"
    d="M5.067 4C5.023 4 5 4.033 5 4.059c0 .025.023.059.067.059.043 0 .066-.034.066-.06 0-.025-.023-.058-.066-.058zM3 4.059C3 2.915 3.932 2 5.067 2c1.134 0 2.066.915 2.066 2.059a2.063 2.063 0 0 1-2.066 2.059A2.063 2.063 0 0 1 3 4.058zm12.376-.705a1 1 0 0 1-.005 1.415l-3.2 3.176a1 1 0 0 1-.704.29H9.209l1.989 2.633a1 1 0 0 1 .172.358l1.066 4.236c.037.144.04.295.011.441l-1.067 5.295a1 1 0 1 1-1.96-.396l1.022-5.072-.962-3.818L7.2 8.894l-2.113 2.797.95 3.77a1 1 0 0 1-1.94.49L3.03 11.714a1 1 0 0 1 .172-.847l3.2-4.236a1 1 0 0 1 .798-.397h3.855l2.907-2.886a1 1 0 0 1 1.414.005zm-3.31 8.117a1 1 0 0 1 1-1h2.667a1 1 0 0 1 .445.104l4.267 2.118a1 1 0 1 1-.89 1.791L15.5 12.471h-2.432a1 1 0 0 1-1-1z"
  />
</svg>
